app/static/images/icons/icon-detail.svg

<?xml version="1.0" encoding="UTF-8"?>
<svg width="42" height="42" fill="none" version="1.1" viewBox="0 0 42 42" xmlns="http://www.w3.org/2000/svg">
 <g clip-path="url(#clip0_282_2988)">
  <path d="m41.077 38.83c-0.0999-0.4037-0.3998-0.6939-0.7497-0.8958-0.0999-0.0568-0.2749-0.1325-0.3311-0.1703-0.1374-0.082-0.3436-0.2713-0.5185-0.3911-0.3748-0.2587-0.7809-0.5047-1.2307-0.593-0.2999-0.0568-0.9184-0.0505-0.9059 0.41 0.0062 0.3154 0.2624 0.4858 0.4748 0.675 0.1125 0.0946 0.2187 0.1893 0.3311 0.2839-3.0799-0.0252-6.1661 0.0883-9.2461 0.1009-2.2678 0.0063-4.5418 0.019-6.8096 0.0316-5.3602 0.0252-10.72 0.0567-16.081 0.0757-0.5935 0-1.187 0.0189-1.7805 0.0315 0.01874-0.6498 0.01249-1.2995 0.02499-1.9493 0.04997-2.5044 0-5.0089-0.00625-7.5133-0.01874-5.2361-0.04373-10.472-0.05623-15.708-0.00624-3.3371-0.13119-6.6743-0.09996-10.011 0.04998 0.05677 0.09996 0.11355 0.14369 0.17033 0.01875 0.01892 0.16868 0.29649 0.1187 0.17663 0.09996 0.23972 0.18118 0.4479 0.42482 0.58038 0.33111 0.17664 0.63723 0.10093 0.91837-0.11986 0.01249-0.00631 0.02498-0.01893 0.03748-0.02523 0.23115-0.17664 0.26864-0.54253 0.21241-0.80118-0.09371-0.40374-0.34985-0.73808-0.61849-1.0409-0.12495-0.13879-0.25614-0.27126-0.38109-0.40374-0.04998-0.05678-0.1062-0.10724-0.15618-0.16402-0.03124-0.03154-0.09371-0.13248-0.08746-0.12617-0.3561-0.61822-0.74969-1.4068-1.5931-1.1923-0.39983 0.10094-0.68721 0.40374-0.88712 0.75701-0.05623 0.10093-0.1312 0.27757-0.16868 0.33435-0.08122 0.13878-0.26864 0.34696-0.38734 0.5236-0.25614 0.3785-0.49979 0.78855-0.58725 1.2428-0.05623 0.30281-0.04998 0.92734 0.40608 0.91472 0.31236-0.0063 0.48104-0.26495 0.66846-0.47944 0.09371-0.11355 0.18742-0.22079 0.28114-0.33434-0.02499 3.1101 0.08746 6.2264 0.09995 9.3364 0.00625 2.29 0.01875 4.58 0.03124 6.8762 0.02499 5.4127 0.05623 10.825 0.07497 16.238 0 0.921 0.03748 1.842 0.05622 2.7631-0.13744 0.0063-0.26863 0.0189-0.40607 0.0315-0.08747 0.0063-0.17493 0.0126-0.25615 0.0189-0.03748 0-0.06872 0-0.1062 0.0063-0.05623 0-0.10621 0-0.16243 0.019-0.21866 0.0252-0.44356 0.0631-0.66222 0.0568-0.14369 0-0.26864 0.0504-0.3686 0.1324-0.21866 0.0316-0.38109 0.2397-0.32486 0.4858 0.037484 0.1829 0.13119 0.2839 0.25614 0.3785 0.11245 0.1262 0.26239 0.2019 0.43732 0.2019 0.19991 0 0.39983 0.0441 0.59974 0.063 0.03124 0 0.05623 0.0063 0.08747 0.0127 0.02499 0 0.06247 0.0063 0.09996 0.0126l0.20616 0.0189c0.16868 0.0189 0.3436 0.0315 0.51228 0.0442 0.05623 0 0.11245 0.0063 0.16868 0.0126v0.0189c0.02499 0.2208 0.06247 0.4479 0.05623 0.6687 0 0.1451 0.04997 0.2713 0.13119 0.3722 0.03124 0.2208 0.2374 0.3848 0.48105 0.328 0.18117-0.0378 0.28113-0.1324 0.37484-0.2586 0.12495-0.1136 0.19991-0.265 0.19991-0.4416 0-0.2019 0.04374-0.4037 0.06248-0.6056v-0.0379c0.38109 0 0.75593 0 1.137 0.0127 2.4802 0.0504 4.9604 0 7.4406-0.0064 5.1853-0.0189 10.371-0.0441 15.556-0.0567 3.3048-0.0063 6.6097-0.1325 9.9145-0.101-0.0562 0.0505-0.1124 0.101-0.1687 0.1451-0.0187 0.019-0.2936 0.1704-0.1749 0.1199-0.2374 0.1009-0.4436 0.1829-0.5748 0.429-0.1749 0.3343-0.0999 0.6434 0.1188 0.9273 0.0062 0.0126 0.0187 0.0252 0.0249 0.0379 0.175 0.2334 0.5373 0.2712 0.7935 0.2144 0.3998-0.0946 0.7309-0.3532 1.0308-0.6245 0.1374-0.1262 0.2686-0.2586 0.3998-0.3848 0.0562-0.0505 0.1062-0.1073 0.1624-0.1577 0.0313-0.0316 0.1312-0.0946 0.125-0.0883 0.606-0.3533 1.3869-0.7507 1.1745-1.6024l0.0312-0.0063zm-28.113-8.1316c0.2437-1.0598-0.3561-2.0691-1.187-2.6874-0.3936-0.2902-0.8621-0.4605-1.3494-0.3217-0.2374 0.0694-0.50605 0.1893-0.70597 0.3722-0.11245 0.0189-0.23115 0.0442-0.33735 0.082-0.48105 0.1514-0.86214 0.511-1.1058 0.9463-0.4623 0.8075-0.43731 1.8799 0.11246 2.6369 1.2307 1.6907 4.1108 0.9967 4.573-1.0283zm-3.436-1.8736-0.01875-0.0378c0 0.0126 0.0125 0.0252 0.01875 0.0378zm-0.06248-0.1388s0-0.0063-0.01249-0.0504c0 0.0189 0.01249 0.0378 0.01249 0.0504zm0.04998 0.7949c0.09371-0.2082 0.24365-0.3344 0.40608-0.4353h0.01874c0.17491 0.0126 0.39981-0.0631 0.57471-0.0189 0.0313 0.0126 0.1375 0.1262 0.2062 0.1956 0.2374 0.2523 0.5873 0.5299 0.656 0.8705 0.0437 0.2082-0.075 0.5299-0.3249 0.7255-0.4623 0.3659-1.2557 0.41-1.5493-0.2082-0.16244-0.3406-0.1312-0.7949 0.01874-1.1292h-0.00625zm9.4085-10.623c0.2436-1.0598-0.3561-2.0692-1.187-2.6874-0.3936-0.2902-0.8621-0.4605-1.3494-0.3217-0.2374 0.0693-0.5061 0.1892-0.706 0.3722-0.1124 0.0189-0.2311 0.0441-0.3373 0.082-0.4811 0.1514-0.8622 0.5109-1.1058 0.9462-0.4623 0.8075-0.4373 1.8799 0.1124 2.637 1.2308 1.6906 4.1108 0.9967 4.5731-1.0283zm-3.4361-1.8736-0.0187-0.0379c0 0.0126 0.0125 0.0253 0.0187 0.0379zm-0.0624-0.1388s0-0.0063-0.0125-0.0505c0 0.0189 0.0125 0.0379 0.0125 0.0505zm0.0499 0.7949c0.0938-0.2082 0.2437-0.3344 0.4061-0.4353h0.0188c0.1749 0.0126 0.3998-0.0631 0.5747-0.019 0.0313 0.0127 0.1375 0.1262 0.2062 0.1956 0.2374 0.2523 0.5872 0.5299 0.656 0.8706 0.0437 0.2081-0.075 0.5299-0.3249 0.7254-0.4623 0.3659-1.2557 0.4101-1.5493-0.2081-0.1625-0.3407-0.1312-0.7949 0.0187-1.1292h-0.0063zm14.806 7.16c0.2436-1.0598-0.3561-2.0691-1.187-2.6874-0.3936-0.2901-0.8622-0.4605-1.3494-0.3217-0.2374 0.0694-0.5061 0.1893-0.706 0.3722-0.1124 0.0189-0.2311 0.0442-0.3374 0.082-0.481 0.1514-0.8621 0.511-1.1057 0.9463-0.4623 0.8075-0.4373 1.8799 0.1124 2.6369 1.2307 1.6907 4.1108 0.9967 4.5731-1.0283zm-3.4423-1.8799-0.0188-0.0378c0 0.0126 0.0125 0.0252 0.0188 0.0378zm-0.0625-0.1388s0-0.0063-0.0125-0.0504c0 0.0189 0.0125 0.0378 0.0125 0.0504zm0.0562 0.7949c0.0938-0.2082 0.2437-0.3343 0.4061-0.4353h0.0188c0.1749 0.0126 0.3998-0.0631 0.5747-0.0189 0.0313 0.0126 0.1375 0.1262 0.2062 0.1955 0.2374 0.2524 0.5872 0.53 0.656 0.8706 0.0437 0.2082-0.075 0.5299-0.3249 0.7255-0.4623 0.3659-1.2557 0.41-1.5494-0.2082-0.1624-0.3406-0.1311-0.7949 0.0188-1.1292h-0.0063zm8.5089-15.184c0.2437-1.0598-0.3561-2.0692-1.187-2.6874-0.3935-0.29019-0.8621-0.46051-1.3494-0.32173-0.2374 0.06939-0.506 0.18925-0.7059 0.3722-0.1125 0.01892-0.2312 0.04416-0.3374 0.08201-0.481 0.1514-0.8621 0.51098-1.1058 0.94626-0.4623 0.80748-0.4373 1.8799 0.1125 2.6369 1.2307 1.6906 4.1107 0.99675 4.573-1.0283zm-3.4423-1.8736-0.0187-0.03785c0 0.01262 0.0125 0.02523 0.0187 0.03785zm-0.0624-0.13878s0-0.00631-0.0125-0.05047c0 0.01892 0.0125 0.03785 0.0125 0.05047zm0.0562 0.79486c0.0937-0.20818 0.2436-0.33435 0.4061-0.43528h0.0187c0.1749 0.01261 0.3999-0.06309 0.5748-0.01893 0.0312 0.01262 0.1374 0.12617 0.2061 0.19556 0.2374 0.25234 0.5873 0.52991 0.656 0.87057 0.0437 0.20818-0.075 0.52991-0.3248 0.72547-0.4624 0.36589-1.2558 0.41005-1.5494-0.20818-0.1624-0.34066-0.1312-0.79486 0.0187-1.1292h-0.0062z" fill="#231F20"/>
  <g stroke="#231F20" stroke-miterlimit="10" stroke-width="1.5657">
   <path d="m11.677 28.169c1.1433-2.7568 2.5865-5.3811 4.292-7.8162"/>
   <path d="m18.05 19.205c2.474 1.6149 4.0296 2.7568 7.9966 4.9395"/>
   <path d="m28.589 22.826c1.3681-4.4286 2.7363-8.8571 4.1045-13.292"/>
  </g>
 </g>
 <defs>
  <clipPath id="clip0_282_2988">
   <rect transform="translate(.40723 .22266)" width="40.708" height="41.491" fill="#fff"/>
  </clipPath>
 </defs>
</svg>

<svg width="42" height="42" viewBox="0 0 42 42" fill="none" xmlns="http://www.w3.org/2000/svg">
<g clip-path="url(#clip0_282_2988)">
<path d="M41.0771 38.8304C40.9772 38.4267 40.6773 38.1365 40.3274 37.9346C40.2275 37.8778 40.0525 37.8021 39.9963 37.7643C39.8589 37.6823 39.6527 37.493 39.4778 37.3732C39.103 37.1145 38.6969 36.8685 38.2471 36.7802C37.9472 36.7234 37.3287 36.7297 37.3412 37.1902C37.3474 37.5056 37.6036 37.676 37.816 37.8652C37.9285 37.9598 38.0347 38.0545 38.1471 38.1491C35.0672 38.1239 31.981 38.2374 28.901 38.25C26.6332 38.2563 24.3592 38.269 22.0914 38.2816C16.7312 38.3068 11.3709 38.3383 6.0107 38.3573C5.4172 38.3573 4.82371 38.3762 4.23021 38.3888C4.24895 37.739 4.2427 37.0893 4.2552 36.4395C4.30517 33.9351 4.2552 31.4306 4.24895 28.9262C4.23021 23.6901 4.20522 18.4541 4.19272 13.2181C4.18648 9.88097 4.06153 6.5438 4.09276 3.20664C4.14274 3.26341 4.19272 3.32019 4.23645 3.37697C4.2552 3.39589 4.40513 3.67346 4.35515 3.5536C4.45511 3.79332 4.53633 4.0015 4.77997 4.13398C5.11108 4.31062 5.4172 4.23491 5.69834 4.01412C5.71083 4.00781 5.72332 3.99519 5.73582 3.98889C5.96697 3.81225 6.00446 3.44636 5.94823 3.18771C5.85452 2.78397 5.59838 2.44963 5.32974 2.14682C5.20479 2.00803 5.0736 1.87556 4.94865 1.74308C4.89867 1.6863 4.84245 1.63584 4.79247 1.57906C4.76123 1.54752 4.69876 1.44658 4.70501 1.45289C4.34891 0.834665 3.95532 0.0461097 3.11193 0.260597C2.7121 0.361532 2.42472 0.664337 2.22481 1.01761C2.16858 1.11854 2.09361 1.29518 2.05613 1.35196C1.97491 1.49074 1.78749 1.69892 1.66879 1.87556C1.41265 2.25406 1.169 2.66411 1.08154 3.11832C1.02531 3.42113 1.03156 4.04566 1.48762 4.03304C1.79998 4.02674 1.96866 3.76809 2.15608 3.5536C2.24979 3.44005 2.3435 3.33281 2.43722 3.21926C2.41223 6.32932 2.52468 9.44569 2.53717 12.5557C2.54342 14.8457 2.55592 17.1357 2.56841 19.4319C2.5934 24.8446 2.62464 30.2572 2.64338 35.6699C2.64338 36.5909 2.68086 37.5119 2.6996 38.433C2.56216 38.4393 2.43097 38.4519 2.29353 38.4645C2.20606 38.4708 2.1186 38.4771 2.03738 38.4834C1.9999 38.4834 1.96866 38.4834 1.93118 38.4897C1.87495 38.4897 1.82497 38.4897 1.76875 38.5087C1.55009 38.5339 1.32519 38.5718 1.10653 38.5655C0.962839 38.5655 0.837892 38.6159 0.737934 38.6979C0.519277 38.7295 0.356846 38.9376 0.413072 39.1837C0.450556 39.3666 0.544266 39.4676 0.669213 39.5622C0.781666 39.6884 0.931602 39.7641 1.10653 39.7641C1.30644 39.7641 1.50636 39.8082 1.70627 39.8271C1.73751 39.8271 1.7625 39.8334 1.79374 39.8398C1.81873 39.8398 1.85621 39.8461 1.8937 39.8524C1.96242 39.8587 2.03114 39.865 2.09986 39.8713C2.26854 39.8902 2.44346 39.9028 2.61214 39.9155C2.66837 39.9155 2.72459 39.9218 2.78082 39.9281C2.78082 39.9281 2.78082 39.9407 2.78082 39.947C2.80581 40.1678 2.84329 40.3949 2.83705 40.6157C2.83705 40.7608 2.88702 40.887 2.96824 40.9879C2.99948 41.2087 3.20564 41.3727 3.44929 41.3159C3.63046 41.2781 3.73042 41.1835 3.82413 41.0573C3.94908 40.9437 4.02404 40.7923 4.02404 40.6157C4.02404 40.4138 4.06778 40.212 4.08652 40.0101C4.08652 39.9975 4.08652 39.9848 4.08652 39.9722C4.46761 39.9722 4.84245 39.9722 5.22354 39.9849C7.70374 40.0353 10.1839 39.9849 12.6641 39.9785C17.8494 39.9596 23.0347 39.9344 28.2201 39.9218C31.5249 39.9155 34.8298 39.7893 38.1346 39.8208C38.0784 39.8713 38.0222 39.9218 37.9659 39.9659C37.9472 39.9849 37.6723 40.1363 37.791 40.0858C37.5536 40.1867 37.3474 40.2687 37.2162 40.5148C37.0413 40.8491 37.1163 41.1582 37.335 41.4421C37.3412 41.4547 37.3537 41.4673 37.3599 41.48C37.5349 41.7134 37.8972 41.7512 38.1534 41.6944C38.5532 41.5998 38.8843 41.3412 39.1842 41.0699C39.3216 40.9437 39.4528 40.8113 39.584 40.6851C39.6402 40.6346 39.6902 40.5778 39.7464 40.5274C39.7777 40.4958 39.8776 40.4328 39.8714 40.4391C40.4774 40.0858 41.2583 39.6884 41.0459 38.8367L41.0771 38.8304ZM12.964 30.6988C13.2077 29.639 12.6079 28.6297 11.777 28.0114C11.3834 27.7212 10.9149 27.5509 10.4276 27.6897C10.1902 27.7591 9.92155 27.879 9.72163 28.0619C9.60918 28.0808 9.49048 28.1061 9.38428 28.1439C8.90323 28.2953 8.52214 28.6549 8.27849 29.0902C7.81619 29.8977 7.84118 30.9701 8.39095 31.7271C9.62168 33.4178 12.5017 32.7238 12.964 30.6988ZM9.52797 28.8252L9.50922 28.7874C9.50922 28.8 9.52172 28.8126 9.52797 28.8252ZM9.46549 28.6864C9.46549 28.6864 9.46549 28.6801 9.453 28.636C9.453 28.6549 9.46549 28.6738 9.46549 28.6864ZM9.51547 29.4813C9.60918 29.2731 9.75912 29.1469 9.92155 29.046C9.92155 29.046 9.93404 29.046 9.94029 29.046C10.1152 29.0586 10.3401 28.9829 10.515 29.0271C10.5463 29.0397 10.6525 29.1533 10.7212 29.2227C10.9586 29.475 11.3085 29.7526 11.3772 30.0932C11.4209 30.3014 11.3022 30.6231 11.0523 30.8187C10.59 31.1846 9.7966 31.2287 9.50298 30.6105C9.34054 30.2699 9.37178 29.8156 9.52172 29.4813H9.51547ZM18.924 18.8579C19.1676 17.7981 18.5679 16.7887 17.737 16.1705C17.3434 15.8803 16.8749 15.71 16.3876 15.8488C16.1502 15.9181 15.8815 16.038 15.6816 16.221C15.5692 16.2399 15.4505 16.2651 15.3443 16.303C14.8632 16.4544 14.4821 16.8139 14.2385 17.2492C13.7762 18.0567 13.8012 19.1291 14.3509 19.8862C15.5817 21.5768 18.4617 20.8829 18.924 18.8579ZM15.4879 16.9843L15.4692 16.9464C15.4692 16.959 15.4817 16.9717 15.4879 16.9843ZM15.4255 16.8455C15.4255 16.8455 15.4255 16.8392 15.413 16.795C15.413 16.8139 15.4255 16.8329 15.4255 16.8455ZM15.4754 17.6404C15.5692 17.4322 15.7191 17.306 15.8815 17.2051C15.8815 17.2051 15.894 17.2051 15.9003 17.2051C16.0752 17.2177 16.3001 17.142 16.475 17.1861C16.5063 17.1988 16.6125 17.3123 16.6812 17.3817C16.9186 17.634 17.2684 17.9116 17.3372 18.2523C17.3809 18.4604 17.2622 18.7822 17.0123 18.9777C16.55 19.3436 15.7566 19.3878 15.463 18.7696C15.3005 18.4289 15.3318 17.9747 15.4817 17.6404H15.4754ZM30.2817 24.8004C30.5253 23.7406 29.9256 22.7313 29.0947 22.113C28.7011 21.8229 28.2325 21.6525 27.7453 21.7913C27.5079 21.8607 27.2392 21.9806 27.0393 22.1635C26.9269 22.1824 26.8082 22.2077 26.7019 22.2455C26.2209 22.3969 25.8398 22.7565 25.5962 23.1918C25.1339 23.9993 25.1589 25.0717 25.7086 25.8287C26.9393 27.5194 29.8194 26.8254 30.2817 24.8004ZM26.8394 22.9205L26.8206 22.8827C26.8206 22.8953 26.8331 22.9079 26.8394 22.9205ZM26.7769 22.7817C26.7769 22.7817 26.7769 22.7754 26.7644 22.7313C26.7644 22.7502 26.7769 22.7691 26.7769 22.7817ZM26.8331 23.5766C26.9269 23.3684 27.0768 23.2423 27.2392 23.1413C27.2392 23.1413 27.2517 23.1413 27.258 23.1413C27.4329 23.1539 27.6578 23.0782 27.8327 23.1224C27.864 23.135 27.9702 23.2486 28.0389 23.3179C28.2763 23.5703 28.6261 23.8479 28.6949 24.1885C28.7386 24.3967 28.6199 24.7184 28.37 24.914C27.9077 25.2799 27.1143 25.324 26.8206 24.7058C26.6582 24.3652 26.6895 23.9109 26.8394 23.5766H26.8331ZM35.342 8.39218C35.5857 7.33236 34.9859 6.32301 34.155 5.70478C33.7615 5.41459 33.2929 5.24427 32.8056 5.38305C32.5682 5.45244 32.2996 5.5723 32.0997 5.75525C31.9872 5.77417 31.8685 5.79941 31.7623 5.83726C31.2813 5.98866 30.9002 6.34824 30.6565 6.78352C30.1942 7.591 30.2192 8.66344 30.769 9.42045C31.9997 11.1111 34.8797 10.4172 35.342 8.39218ZM31.8997 6.51857L31.881 6.48072C31.881 6.49334 31.8935 6.50595 31.8997 6.51857ZM31.8373 6.37979C31.8373 6.37979 31.8373 6.37348 31.8248 6.32932C31.8248 6.34824 31.8373 6.36717 31.8373 6.37979ZM31.8935 7.17465C31.9872 6.96647 32.1371 6.8403 32.2996 6.73937C32.2996 6.73937 32.3121 6.73937 32.3183 6.73937C32.4932 6.75198 32.7182 6.67628 32.8931 6.72044C32.9243 6.73306 33.0305 6.84661 33.0992 6.916C33.3366 7.16834 33.6865 7.44591 33.7552 7.78657C33.7989 7.99475 33.6802 8.31648 33.4304 8.51204C32.968 8.87793 32.1746 8.92209 31.881 8.30386C31.7186 7.9632 31.7498 7.509 31.8997 7.17465H31.8935Z" fill="#231F20"/>
<path d="M11.6772 28.1687C12.8205 25.4119 14.2637 22.7876 15.9692 20.3525" stroke="#231F20" stroke-width="1.56568" stroke-miterlimit="10"/>
<path d="M18.0498 19.2051C20.5238 20.82 22.0794 21.9619 26.0464 24.1446" stroke="#231F20" stroke-width="1.56568" stroke-miterlimit="10"/>
<path d="M28.5889 22.8261C29.957 18.3975 31.3252 13.969 32.6934 9.53418" stroke="#231F20" stroke-width="1.56568" stroke-miterlimit="10"/>
</g>
<defs>
<clipPath id="clip0_282_2988">
<rect width="40.7078" height="41.4906" fill="white" transform="translate(0.407227 0.222656)"/>
</clipPath>
</defs>
</svg>
